docs/.gitbook/assets/icon-star-disabled-16@light.svg

<svg width="32" height="32" viewBox="0 0 16 16" fill="none" xmlns="http://www.w3.org/2000/svg">
<rect x="0" y="0" width="16" height="16" fill="#fff"/>
<path fill-rule="evenodd" clip-rule="evenodd" d="M1.21991 1.21967C1.51281 0.926777 1.98768 0.926777 2.28057 1.21967L5.847 4.78609L6.71679 1.95121C6.71681 1.95115 6.71683 1.9511 6.71684 1.95104C7.10575 0.682928 8.89461 0.682989 9.2834 1.95121L10.3035 5.27873H13.6563C14.9526 5.27873 15.4807 6.91962 14.4737 7.69511L11.634 9.88181C11.6323 9.8836 11.6303 9.88575 11.6281 9.88829C11.6117 9.90646 11.5881 9.93479 11.5588 9.97332C11.5001 10.0505 11.433 10.1494 11.3725 10.2512C11.3648 10.2642 11.3574 10.2769 11.3502 10.2893L14.7806 13.7197C15.0735 14.0126 15.0735 14.4874 14.7806 14.7803C14.4877 15.0732 14.0128 15.0732 13.7199 14.7803L9.96991 11.0303L1.21991 2.28033C0.927021 1.98744 0.927021 1.51256 1.21991 1.21967ZM10.2644 9.20349C10.298 9.15524 10.3318 9.10885 10.365 9.06517C10.4454 8.95949 10.5665 8.81064 10.7007 8.70727L13.2051 6.77873H10.1861C9.59332 6.77873 9.07516 6.38969 8.90282 5.82752L8.00003 2.88262L7.04764 5.98673L10.2644 9.20349ZM13.5585 6.50664L13.5583 6.5068L13.5585 6.50664ZM1.3899 6.64328C1.64262 6.3151 2.11354 6.25392 2.44172 6.50664L5.29947 8.70727C5.74599 9.05112 5.92983 9.63608 5.7654 10.1724L4.82826 13.2294L7.18272 11.4163C7.66484 11.0451 8.33535 11.0451 8.81747 11.4163C8.83661 11.4311 8.85502 11.4467 8.87265 11.4632L11.263 13.7027C11.5653 13.9859 11.5808 14.4605 11.2976 14.7628C11.0144 15.0651 10.5398 15.0805 10.2375 14.7973L7.98773 12.6896L5.3526 14.7188C4.29729 15.5315 2.87393 14.4867 3.25192 13.2537L4.30099 9.83159L1.52654 7.69511C1.19835 7.44239 1.13718 6.97147 1.3899 6.64328ZM8.09791 12.6048C8.09779 12.6049 8.09768 12.605 8.09757 12.6051L8.09791 12.6048ZM4.43741 13.5304C4.43745 13.5303 4.4375 13.5303 4.43754 13.5303L4.43741 13.5304Z" fill="#000"/>
</svg>

<svg xmlns="http://www.w3.org/2000/svg" width="32" height="32" fill="none" viewBox="0 0 16 16"><path fill="#fff" d="M0 0h16v16H0z"/><path fill="#000" fill-rule="evenodd" d="M1.22 1.22a.75.75 0 0 1 1.06 0l3.567 3.566.87-2.835c.389-1.268 2.178-1.268 2.566 0l1.02 3.328h3.353c1.297 0 1.825 1.64.818 2.416l-2.84 2.187-.006.006-.07.085a3 3 0 0 0-.208.316l3.43 3.43a.75.75 0 1 1-1.06 1.061l-3.75-3.75-8.75-8.75a.75.75 0 0 1 0-1.06m9.044 7.983.101-.138a2 2 0 0 1 .336-.358l2.504-1.928h-3.019c-.593 0-1.11-.39-1.283-.951L8 2.883l-.952 3.104zM1.39 6.643a.75.75 0 0 1 1.053-.136l2.857 2.2c.447.344.63.93.466 1.465l-.937 3.057 2.355-1.813a1.34 1.34 0 0 1 1.69.047l2.39 2.24a.75.75 0 1 1-1.025 1.094l-2.25-2.107-2.635 2.029c-1.056.813-2.48-.232-2.101-1.465L4.3 9.832 1.527 7.695a.75.75 0 0 1-.137-1.052m3.049 6.887" clip-rule="evenodd"/></svg>
